X:1
T:Punchin' Dough
M:3/4
L:1/4
K:C
 C| E G G| A G E| D C B,| C2 C| C E G| c B c| d c B| c2c/2-d/2| e c c|\
 c G G| F G A| G3/2 C/2 D| E G G| A G E| D E D| C3-| C z||
